!!!OTL: Xiashui bannao haozi 4. Sipingqiang shuban
!!!ARE: Asia, China,ÿSichuan, Chongqing
!! Hanzu minge gailun, 81
!!!SCT: C1713C
!!!YEM: Copyright 1995, estate of Helmut Schaffrath.
**kern
*ICvox
*Ivox
!! Irregular meter.
*MX
*k[f#c#g#]
*A:
{2f#
8f#
4.a
=1
2f#
2a}
{8aa
8aa
8ff#
8aa
16ff#
16ee
4.cc#
=2
8ff#
16cc#
16ee
16ee
16cc#
16b
16a
8f#
4.r}
{32aa
32ff#
16.ee
32ff#
16aa
16ff#
16ee
16cc#
16ee
8cc#
16cc#
16ee
=3
16b
32cc#
32ff#
[8ff#
16ff#]
16ee
16cc#
16b
=4
4.cc#
8ee
16b
16a
8r}
!*M3/4
=5
{2f#
[4a
8.a]}
{16aa
=6
8.ee
16ff#
8.ee
16ff#
8aa
16ff#
16ee
8.cc#
16ee
=7
8b
8cc#
8ff#
8ee
16cc#
32b
32a
8f#
4r}
{16r
32aa
32ff#
16.ee
32ff#
16aa
16ff#
8cc#
8aa
8aa
8ee
8ff#
8aa
16ee
16cc#
16.b
32cc#
=8
8.ee
16cc#
4.b
16a
16r}
=9
{2f#
[4a
8.a]}
{16ee
=10
16f#
8aa
16ff#
8aa
8aa
16ff#
16ee
4cc#
8ee
=11
16cc#
16ee
8ee
8ff#
8.ee
16cc#
32b
32a
16f#
8r}
{16r
32aa
32ff#
16.ee
32ff#
48aa
48ff#
48ee
8cc#
16ee
24cc#
24b
24cc#
24ee
24aa
24ff#
16.ff#
32ee
16cc#
16b
=12
4.cc#
8ee
16b
16a
8r}
=13
{2f#
2a}
{8.aa
16ee
8.cc#
16ee
24aa
24ff#
24ee
[8cc#
8.cc#]
16ee
=14
8ff#
8ee
16ee
16cc#
16b
16a
8f#
8r}
=15
{16r
32aa
32ff#
16.ee
32ff#
48aa
48ff#
48ee
8.cc#
8.aa
16ff#
16cc#
16ff#
16aa
16ff#
8.ff#
16ee
16cc#
8b
16cc#
=16
8ee
8cc#
4.b
16a
16r}
=17
{2f#
2a}
==
!!!AGN: Haozi, Chuanjiang chuanfu haozi
!!!AMT: irregular
!!!AIN: vox
!!!EED: Helmut Schaffrath
!!!EEV: 1.0
*-
